X:1
T:James Gibb editions
T:Alcun non può saper - Nanino
%%score [ 1 2 3 ]
L:1/8
Q:1/4=108
M:2/2
K:G
V:1 treble nm="Soprano" snm="S"
V:2 treble nm="Alto" snm="A"
V:3 bass nm="Bass" snm="B"
V:1
"^Alcun non può saper""^Giovanni Maria Nanino\n(1544-1607)""^Ludovico Ariosto\n(1474-1533)" F4 A4- | %1
w: Al- cun|
 A4 B4 | G4 A4 | B6 B2 | B4 A2 (d2- | d2 ^cB c4) | d4 :|[M:2/2] z2 A2 | A2 B2 c4- | c2 B2 B2 c2 | %10
w: * non|può sa-|per da|chi sia~~a- ma\-||to,|Quan-|do fe- li\-|* c'in su la|
 d6 A2 | A8 | G4 z2 A2 |[M:2/2] A2 B2 c4- | c2 B2 B2 c2 | d6 A2 | A8 | G8 |] %18
w: ruo- ta|sie-|de. Quan-|do fe- li\-|* c'in su la|ruo- ta|sie-|de.|
V:2
 D4 F4- | F4 D4 | E6 F2 | G4 D4 | E4 F4 | G8 | F4 :|[M:2/2] z2 F2 | E2 D2 (E4- | E2 DC D2) G2 | %10
w: Al- cun|* non|può sa-|per da|chi sia~~a-|ma-|to,|Quan-|do fe- li\-|* * * * c'in|
 F2 G2 F2 E2 | (F2 G4 F2) | G4 z2 F2 |[M:2/2] E2 D2 (E4- | E2 DC D2) G2 | F2 G2 F2 E2 | %16
w: su la ruo- ta|sie\- * *|de. Quan-|do fe- li\-|* * * * c'in|su la ruo- ta|
 (F2 G4 F2) | G8 |] %18
w: sie\- * *|de.|
V:3
 D,4 D,4- | D,4 B,,4 | C,4 A,,4 | G,,4 G,4 | G,4 F,4 | E,8 | D,4 :|[M:2/2] z2 D,2 | %8
w: Al- cun|* non|può sa-|per da|chi sia~~a-|ma-|to,|Quan-|
 C,2 B,,2 (A,,B,,C,D, | E,F, G,4) E,2 | D,2 G,,2 B,,2 C,2 | D,8 | G,,4 z2 D,2 | %13
w: do fe- li\- * * *|* * * c'in|su la ruo- ta|sie-|de. Quan-|
[M:2/2] C,2 B,,2 (A,,B,,C,D, | E,F, G,4) E,2 | D,2 G,,2 B,,2 C,2 | D,8 | G,,8 |] %18
w: do fe- li\- * * *|* * * c'in|su la ruo- ta|sie-|de.|

